resources/svg/lock-key.svg

<svg xmlns="http://www.w3.org/2000/svg" viewBox="0 0 256 256" fill="currentColor"><path d="M127.99414,112a27.998,27.998,0,0,0-8,54.82935V184a8,8,0,1,0,16,0V166.82935a27.998,27.998,0,0,0-8-54.82935Zm0,40a12,12,0,1,1,12-12A12.01375,12.01375,0,0,1,127.99414,152Zm80-72h-36V52a44,44,0,1,0-88,0V80h-36a16.01833,16.01833,0,0,0-16,16V208a16.01833,16.01833,0,0,0,16,16h160a16.01833,16.01833,0,0,0,16-16V96A16.01833,16.01833,0,0,0,207.99414,80Zm-108-28a28,28,0,1,1,56,0V80h-56Zm108,156h-160V96h160l.01025,111.99951Z"/></svg>

<svg xmlns="http://www.w3.org/2000/svg" viewBox="0 0 256 256" fill="currentColor"><path d="M128,112a28,28,0,0,0-8,54.8V184a8,8,0,0,0,16,0V166.8a28,28,0,0,0-8-54.8Zm0,40a12,12,0,1,1,12-12A12,12,0,0,1,128,152Zm80-72H172V52a44,44,0,0,0-88,0V80H48A16,16,0,0,0,32,96V208a16,16,0,0,0,16,16H208a16,16,0,0,0,16-16V96A16,16,0,0,0,208,80ZM100,52a28,28,0,0,1,56,0V80H100ZM208,208H48V96H208V208Z"/></svg>
